X:1
T:Polska efter Lrk-Jonas
R:Polska
O:Gstrikland
S:efter Lrk-Jonas
M:3/4
L:1/16
K:Gm
d2|:d2d'2 d'2a2 b2ag|^f2g2 abaf g3d|dedc BABc d3B|B2AG ^FGAFD4|
D2d'2 d'2a2 b2ag|^f2g2 abaf g2d2|dedc BABc d3B|ABA^F G4z4::
A3^F DFAF DFAc|B3A GBdB GBdB|cdc=B c2d2 d2g2|^fgaf g2d2 BcBG|
A3^F DFAF DFAc|B3A GBdB GBdB|cdc=B c2d2 d2g2|^fgaf g4z4:|
